packages/foundations/assets/icons/functional/images/social/thumbs_down_28.svg

<svg width="28" height="28" viewBox="0 0 28 28" fill="none" xmlns="http://www.w3.org/2000/svg">
<g clip-path="url(#clip0_187_447)">
<path fill-rule="evenodd" clip-rule="evenodd" d="M18.9376 17.5C19.4775 18.655 20.139 20.3761 20.139 21.875C20.139 23.9356 19.054 25.3759 17.5 25.3759C16.0545 25.3759 15.7439 24.4002 15.4936 23.6154C15.3711 23.2321 15.2329 22.7964 14.9669 22.2661C13.6763 19.6857 10.7739 17.5621 9.64163 16.8026C9.17438 17.2314 8.5575 17.4991 7.87413 17.4991H4.375C2.92775 17.4991 1.75 16.3214 1.75 14.8741V6.9991C1.75 5.55185 2.92775 4.3741 4.375 4.3741H7.875C8.60125 4.3741 9.25925 4.6716 9.73525 5.14935C11.3628 4.5491 16.7134 2.6241 18.375 2.6241C22.6459 2.6241 26.25 9.07373 26.25 13.1241C26.25 14.7604 26.25 17.4991 22.75 17.4991L18.9376 17.5ZM8.75 6.99998C8.75 6.51698 8.35712 6.12498 7.875 6.12498H4.375C3.89287 6.12498 3.5 6.51698 3.5 6.99998V14.875C3.5 15.358 3.89287 15.75 4.375 15.75H7.875C8.35712 15.75 8.75 15.358 8.75 14.875V6.99998ZM10.4738 6.7436C10.4825 6.82935 10.5 6.91248 10.5 6.99998V14.875C10.5 15.0019 10.4799 15.1235 10.4624 15.2451C11.6034 15.9906 14.98 18.3785 16.5322 21.483C16.8586 22.1349 17.0327 22.6835 17.1605 23.0834C17.2314 23.3047 17.3189 23.5795 17.3162 23.6084C17.3162 23.6084 17.3652 23.6259 17.4991 23.6259C18.1099 23.6259 18.3881 22.7185 18.3881 21.875C18.3881 19.8765 16.7624 17.0975 16.7466 17.0704C16.5865 16.7991 16.5839 16.4649 16.7405 16.191C16.8962 15.918 17.1859 15.75 17.5 15.75H22.75C24.1483 15.75 24.5 15.4402 24.5 13.125C24.5 9.67048 21.2153 4.37498 18.375 4.37498C17.2917 4.37498 13.1714 5.75223 10.4738 6.7436Z" fill="#1A1C1F"/>
</g>
<defs>
<clipPath id="clip0_187_447">
<rect width="28" height="28" fill="white"/>
</clipPath>
</defs>
</svg>

<svg xmlns="http://www.w3.org/2000/svg" width="28" height="28" fill="none"><g clip-path="url(#a)"><path fill="#1A1C1F" fill-rule="evenodd" d="M18.938 17.5c.54 1.155 1.201 2.876 1.201 4.375 0 2.06-1.085 3.5-2.639 3.5-1.445 0-1.756-.975-2.006-1.76-.123-.383-.261-.819-.527-1.349-1.29-2.58-4.193-4.704-5.325-5.463a2.6 2.6 0 0 1-1.768.696H4.375a2.63 2.63 0 0 1-2.625-2.625V7a2.63 2.63 0 0 1 2.625-2.625h3.5a2.62 2.62 0 0 1 1.86.775c1.628-.6 6.978-2.525 8.64-2.525 4.27 0 7.875 6.45 7.875 10.5 0 1.636 0 4.375-3.5 4.375zM8.75 7a.876.876 0 0 0-.875-.875h-3.5A.876.876 0 0 0 3.5 7v7.875c0 .483.393.875.875.875h3.5a.876.876 0 0 0 .875-.875zm1.724-.256c.008.085.026.168.026.256v7.875c0 .127-.02.248-.038.37 1.141.746 4.518 3.133 6.07 6.238.327.652.5 1.2.628 1.6.071.222.159.497.156.525 0 0 .05.018.183.018.61 0 .89-.908.89-1.751 0-1.998-1.627-4.777-1.642-4.805a.873.873 0 0 1 .753-1.32h5.25c1.398 0 1.75-.31 1.75-2.625 0-3.455-3.285-8.75-6.125-8.75-1.083 0-5.204 1.377-7.901 2.369" clip-rule="evenodd"/></g><defs><clipPath id="a"><path fill="#fff" d="M0 0h28v28H0z"/></clipPath></defs></svg>
